X:170
T:Hunter's Purse, The
T:Sceach, An
T:Bush, The
M:C|
E:7
R:reel
I:speed 350
K:ADor
eAAB AGEF|GEAF GED2|cBcd eged|cdef ged2|\
eAAB AGEF|GEAF GED2|cBcd eged|cABG A4:|*
eaab agef|geaf ged2|cBcd eged|cdef ged2|\
eaab agef|geaf ged2|cBcd eged|cABG A4:|**
